wp-content/themes/sayenko-erickson/public/images/expand-icon.svg

<?xml version="1.0" encoding="UTF-8"?>
<svg width="39px" height="39px" viewBox="0 0 39 39" version="1.1" xmlns="http://www.w3.org/2000/svg" xmlns:xlink="http://www.w3.org/1999/xlink">
    <!-- Generator: Sketch 57.1 (83088) - https://sketch.com -->
    <title>expand icon</title>
    <desc>Created with Sketch.</desc>
    <g id="Mockups" stroke="none" stroke-width="1" fill="none" fill-rule="evenodd">
        <g id="Blog-Post:-Case-Study-v1" transform="translate(-342.000000, -1923.000000)" fill-rule="nonzero">
            <g id="Group-8-Copy" transform="translate(326.000000, 1909.000000)">
                <g id="expand-icon" transform="translate(16.000000, 14.000000)">
                    <path d="M0,0.978979592 L0,37.9653061 C0,38.5065306 0.437755102,38.9442857 0.978979592,38.9442857 L18.807551,38.9442857 C19.3487755,38.9442857 19.7865306,38.5065306 19.7865306,37.9653061 C19.7865306,37.4240816 19.3487755,36.9863265 18.807551,36.9863265 L1.95,36.9863265 L1.95,1.95 L36.9863265,1.95 L36.9863265,18.7040816 C36.9863265,19.2453061 37.4240816,19.6830612 37.9653061,19.6830612 C38.5065306,19.6830612 38.9442857,19.2453061 38.9442857,18.7040816 L38.9442857,0.978979592 C38.9442857,0.437755102 38.5065306,0 37.9653061,0 L0.978979592,0 C0.437755102,0 0,0.437755102 0,0.978979592 Z" id="Path" fill="#FFFFFF"></path>
                    <path d="M38.9363265,37.9573469 L38.9363265,24.4028571 C38.9363265,23.8616327 38.4985714,23.4238776 37.9573469,23.4238776 L24.4028571,23.4238776 C23.8616327,23.4238776 23.4238776,23.8616327 23.4238776,24.4028571 L23.4238776,37.9653061 C23.4238776,38.5065306 23.8616327,38.9442857 24.4028571,38.9442857 L37.9653061,38.9442857 C38.4985714,38.9363265 38.9363265,38.4985714 38.9363265,37.9573469 Z M36.9863265,36.9863265 L25.3738776,36.9863265 L25.3738776,25.3738776 L36.9863265,25.3738776 L36.9863265,36.9863265 L36.9863265,36.9863265 Z" id="Shape" fill="#D7D5D5"></path>
                    <path d="M17.4942857,7.80795918 C17.4942857,7.26673469 17.0565306,6.82897959 16.5153061,6.82897959 L7.80795918,6.82897959 C7.26673469,6.82897959 6.82897959,7.26673469 6.82897959,7.80795918 L6.82897959,16.5232653 C6.82897959,17.0644898 7.26673469,17.5022449 7.80795918,17.5022449 C8.34918367,17.5022449 8.78693878,17.0644898 8.78693878,16.5232653 L8.78693878,10.1559184 L19.8263265,21.1953061 C20.0173469,21.3863265 20.2640816,21.4818367 20.5187755,21.4818367 C20.7734694,21.4818367 21.0202041,21.3863265 21.2112245,21.1953061 C21.5932653,20.8132653 21.5932653,20.2004082 21.2112245,19.8183673 L10.1559184,8.77897959 L16.5153061,8.77897959 C17.0565306,8.77897959 17.4942857,8.34122449 17.4942857,7.80795918 Z" id="Path" fill="#FFFFFF"></path>
                </g>
            </g>
        </g>
    </g>
</svg>

<svg width="39" height="39" viewBox="0 0 39 39" version="1.1" xmlns="http://www.w3.org/2000/svg"><g id="Mockups" stroke="none" stroke-width="1" fill="none" fill-rule="evenodd"><g id="Blog-Post:-Case-Study-v1" transform="translate(-342 -1923)" fill-rule="nonzero"><g id="Group-8-Copy" transform="translate(326 1909)"><g id="expand-icon" transform="translate(16 14)"><path d="M0 .979v36.986c0 .542.438.98.979.98h17.829a.978.978 0 1 0 0-1.959H1.95V1.95h35.036v16.754a.978.978 0 1 0 1.958 0V.98a.978.978 0 0 0-.979-.98H.98A.978.978 0 0 0 0 .979z" id="Path" fill="#FFF"/><path d="M38.936 37.957V24.403a.978.978 0 0 0-.979-.98H24.403a.978.978 0 0 0-.98.98v13.562c0 .542.439.98.98.98h13.562a.989.989 0 0 0 .971-.988zm-1.95-.97H25.374V25.373h11.612v11.612z" id="Shape" fill="#D7D5D5"/><path d="M17.494 7.808a.978.978 0 0 0-.979-.979H7.808a.978.978 0 0 0-.979.979v8.715a.978.978 0 1 0 1.958 0v-6.367l11.04 11.04a.97.97 0 0 0 .692.286.97.97 0 0 0 .692-.287.97.97 0 0 0 0-1.377L10.156 8.78h6.36a.977.977 0 0 0 .978-.971z" id="Path" fill="#FFF"/></g></g></g></g></svg>
